X:137
T:Sean Ryan's No. 2
Z: id:dc-jig-115
M:6/8
L:1/8
K:A Dorian
B|AGE EDE|GAB cBA|GDB, G,B,D|GAB cBc|!
AGE EDE|GAB c2d|eag edB|cAA A2:|!
B|cBA a3|bag edB|GBd g3|age dBG|!
ABA a3|bag edB|GBd g3|edB A2:|!